X:1
T:L'heureux soucy
T:Pierre De Villiers
T:Source : Livre XXV de 28 chansons nouvelles à 4 parties---Paris---P.Attaingnant---1547. Editor :André Vierendeels (28/07/18) Notes ; Original clefs : C1, C3, C3, F4 Original note values have been halved Editorial accidentals above the staff Square brackets indicate ligatures
T:L'heureux soucy
T:©
T:©
T:©
T:©
C:Pierre De Villiers
Z:©
%%score [ 1 [ 2 3 ] 4 ]
L:1/8
Q:1/4=120
M:2/2
K:F
V:1 treble nm="Soprano" snm="S"
V:2 treble-8 nm="Tenor 1" snm="T 1"
V:3 treble-8 nm="Tenor 2" snm="T 2"
V:4 bass nm="Bass" snm="B"
V:1
 A4 c2 B2 | A8 | z2 c2 d3 c | B2 A3 G G2- | G2 F2 G4- | G4 z2 c2 | cBAG AB c2- | c2 B2 c4 | %8
w: L'heu- reux sou-|cy|de l'e- spé-|ré de- * *|* * sir|_ en-|fer- * * * * * *|* me'a- mour,|
w: Vi- vant, ie|meurs|en tri- stes-|s'et plai- * *|* * sir,|_ a-|mour _ _ _ _ _ _|_ me rit,|
 z2 A2 c3 B | A2 G2 ABcA | B3 A GF F2- | F2 E2 !fermata!F4 :| E8 | F2 F2 E4 | F4 B2 B2 | A2 A2 G4 | %16
w: me rend loy-|al- le crain- * * *||* * te,|Las,|mes a- mys,|voy- ez si|cest point fain-|
w: et n'en- tend|point ma plain- * * *||* * te,|||||
 G4 c4 | A2 GF G2 G2 | F2 F2 F2 E2 | F3 G A2 B2 | G2 c2 A2 B2- | BA A4 G2 |[M:2/4] A4 |: %23
w: cte où|le _ _ _ bon-|heur e- spè- re|lon- * * gue-|ment, e- spè- re|_ _ lon- gue-|ment,|
w: |||||||
[M:2/2] z2 F2 A4 | G4 F4 | z2 c2 B2 G2 | A2 F2 GFED | C2 c4 B2 | c8 | A4 d2 d2 | cBAG A2 F2 | %31
w: y met-|tant fin|si l'a- mour|est es- tain- * * *||cte,|sa li- ber-|té _ _ _ _ nour-|
w: ||||||||
 G2 A2 B2 A2- | AG F4 E2 | F8 :| %34
w: ri- ra mon _|_ _ _ tour-|ment.|
w: |||
V:2
 f4 f2 d2 | f8- | f4 z2 d2 | g2 e2 fedc | d3 c B2 c2 | G2 G2 G2 A2 | G2 z2 z4 | g4 g2 a2- | %8
w: L'heu- reux sou-|cy|_ de|l'e- spé- ré _ _ _|_ _ _ de-|sir, en- fer- me'a-|mour,|en fer- me'a-|
w: Vi- vant, ie|meurs|_ en|tri- stes- s'et _ _ _|_ _ _ plai-|sir, a- mour me|rit,|a- mour me|
 ag f2 e4 | z4 z2 c2 | f3 e d2 B2 | c4 !fermata!A4 :| c8 | c2 d2 c4 | d4 f2 f2 | f2 f2 d4 | e8 | %17
w: * * * mour,|me|rend loy- al- le|crain- te.|Las,|mes a- mys,|voy- ez si|cest point fain-|cte|
w: _ _ _ rit,|et|n'en- tend point ma|plain- te,||||||
 c2 f4 e2 | d6 cB | A2 c2 c2 B2 | c2 c2 F4 | f4 d4 |[M:2/4] d4 |:[M:2/2] z2 c2 f4 | e4 d2 d2 | %25
w: où le bon-|heur _ _|_ e- spè- re|lon- gue- ment,|lon- gue-|ment,|y met-|tant fin si|
w: ||||||||
 c2 A2 Bcde | f4 B2 cd | ef g3 f g2 | e8 | d4 f2 f2 | f4 z2 d2 | d2 f2 f3 e/d/ | c2 d2 c4 | A8 :| %34
w: l'a- mour est _ _ _|_ es- tain- *||cte,|sa li- ber-|té nour-|ri- ra mon _ _|_ _ tour-|ment.|
w: |||||||||
V:3
 c4 A2 B2 | c2 c2 d3 c | B2 A2 GABc | dBcd cBAG | A4 G4 | z2 c2 c3 d | e2 f3 edc | d4 c4 | %8
w: L'heu- reux sou-|cy de l'e- spé-|ré de- * * * *||* sir,|en- fer- *|* me'a- * * *|* mour,|
w: Vi- vant, ie|meurs en tri- stes-|s'et plai- * * * *||* sir,|a- mour _|_ me _ _ _|_ rit,|
 z4 z2 c2 | f2 e2 d2 c2 | Bcdc BAGF | G4 !fermata!F4 :| G8 | A2 B2 G4 | B4 d2 d2 | c2 c2 B4 | c8 | %17
w: me|rend loy- al- le|crain- * * * * * * *|* te,|Las,|mes a- mys,|voy- ez si|cest point fain-|cte|
w: et|n'en- tend point ma|plain- * * * * * * *|* te,||||||
 z4 c4 | A2 GF G2 G2 | F4 z2 f2 | f2 e2 f3 e | dcBA B2 B2 |[M:2/4] A4 |:[M:2/2] z2 A2 c4 | %24
w: où|le _ _ _ bon-|heur e-|spè- re lon- *|* * * * * gue-|ment,|y met-|
w: |||||||
 c4 A2 A2 | A2 F2 G2 B2 | A4 G2 g2- | gf e2 d4 | c8 | F4 B2 B2 | AGAB c2 A2 | B2 c2 d3 c/B/ | %32
w: tant fin si|l'a- mour est es-|tain- cte, est|_ _ es- tain-|cte,|sa li- ber-|té _ _ _ _ nour-|ri- ra mon _ _|
w: ||||||||
 A2 B2 G4 | F8 :| %34
w: _ _ tour-|ment.|
w: ||
V:4
 F,4 F,2 G,2 | F,4 z4 | z2 F,2 B,3 A, | G,2 A,2 F,2 G,2 | D,4 z2 C,2 | C,3 D, E,2 F,2 | %6
w: L'heu- reux sou-|cy|de l'e- *|* spé- ré de-|sir, en-|fer- * * me'a-|
w: Vi- vant, ie|meurs|en tri- *|* stes- s'et plai-|sir, a-|mour _ _ me|
 C,2 F,2 F,2 A,2 | G,3 F, E,2 F,2 | D,4 C,4 | z2 C,2 F,3 E, | D,2 B,,2 D,4 | C,4 !fermata!F,,4 :| %12
w: mour, me rend loy-|al- * * le|crain- te,|me rend loy-|al- le crain-|* te,|
w: rit et n'en- tend|point _ _ ma|plain- te,|et n'en- tend|point ma plain-|* te,|
 C,8 | F,2 B,,2 C,4 | B,,4 B,,2 B,,2 | F,2 F,2 G,4 | C,4 z2 C,2 | F,2 D,2 C,2 C,2 | %18
w: Las,|mes a- mys,|voy- ez si|cest point fain-|cte, où|le bon- heur e-|
w: ||||||
 D,3 C, B,,2 C,2 | F,,4 z4 | C,4 D,2 B,,2 | F,4 G,4 |[M:2/4] D,4 |:[M:2/2] z2 F,2 F,4 | C,4 D,4 | %25
w: spè- re lon- gue-|ment,|e- spè- re|lon- gue-|ment,|y met-|tant fin|
w: |||||||
 z4 z2 G,2 | F,2 D,2 _E,2 C,2- | C,D,E,F, G,4 | C,8 | D,4 B,,2 B,,2 | F,4 z2 D,2 | %31
w: si|l'a- mour est es-|* * * * tain-|cte,|sa li- ber-|té nour-|
w: ||||||
 G,2 F,2 B,,C,D,E, | F,2 B,,2 C,4 | F,,8 :| %34
w: ri- ra mon _ _ _|_ _ tour-|ment.|
w: |||

